picto/car-park.svg

<svg class="color-immutable" width="24" height="24" viewBox="0 0 24 24" fill="none" xmlns="http://www.w3.org/2000/svg"><g clip-path="url(#a)"><path d="M0 22.5v-21C0 .675.675 0 1.5 0h21c.825 0 1.5.675 1.5 1.5v21c0 .825-.675 1.5-1.5 1.5h-21C.675 24 0 23.325 0 22.5Z" fill="#2D327D"/><path d="m13.054 11.843.001-.001-.001.001ZM3 7.5h5.448c.917 0 1.639.057 2.165.171a4.03 4.03 0 0 1 1.427.605c1.176.788 1.764 1.976 1.764 3.564 0 1.41-.486 2.518-1.459 3.324a3.777 3.777 0 0 1-1.413.743c-.53.151-1.182.226-1.958.226H5.946V21H3V7.5Zm2.946 2.493v3.823h2.632c.782 0 1.345-.139 1.69-.416.425-.345.637-.853.637-1.524 0-.677-.246-1.182-.739-1.514-.358-.246-.939-.369-1.746-.369H5.946Z" fill="#fff"/></g><defs><clipPath id="a"><path fill="#fff" d="M0 0h24v24H0z"/></clipPath></defs></svg>

<svg class="color-immutable" width="24" height="24" viewBox="0 0 24 24" fill="none" xmlns="http://www.w3.org/2000/svg"><path d="M0 22.5V1.5C0 0.675 0.675 0 1.5 0H22.5C23.325 0 24 0.675 24 1.5V22.5C24 23.325 23.325 24 22.5 24H1.5C0.675 24 0 23.325 0 22.5Z" fill="#2D327D"/><path d="M13.054 11.843L13.055 11.842L13.054 11.843Z" fill="white"/><path d="M3 7.5H8.448C9.365 7.5 10.087 7.557 10.613 7.671C11.139 7.785 11.615 7.987 12.04 8.276C13.216 9.064 13.804 10.252 13.804 11.84C13.804 13.25 13.318 14.358 12.345 15.164C11.933 15.509 11.462 15.757 10.932 15.907C10.402 16.058 9.75 16.133 8.974 16.133H5.946V21H3V7.5ZM5.946 9.993V13.816H8.578C9.36 13.816 9.923 13.677 10.268 13.4C10.693 13.055 10.905 12.547 10.905 11.876C10.905 11.199 10.659 10.694 10.166 10.362C9.808 10.116 9.227 9.993 8.42 9.993H5.946Z" fill="white"/></svg>
